icons/integral/integral-2.svg

<svg width="14" height="14" viewBox="0 0 14 14" fill="none" xmlns="http://www.w3.org/2000/svg">
<path d="M4.5 12V12C5.05228 12 5.5 11.5523 5.5 11V11V3V3C5.5 2.44772 5.94772 2 6.5 2V2" stroke="red" stroke-linecap="round"/>
<path d="M7.5 12V12C8.05228 12 8.5 11.5523 8.5 11V11V3V3C8.5 2.44772 8.94772 2 9.5 2V2" stroke="red" stroke-linecap="round"/>
</svg>

<svg xmlns="http://www.w3.org/2000/svg" width="14" height="14" fill="none" viewBox="0 0 14 14"><path stroke="red" stroke-linecap="round" d="M4.5 12v0a1 1 0 0 0 1-1v0-8 0a1 1 0 0 1 1-1v0m1 10v0a1 1 0 0 0 1-1v0-8 0a1 1 0 0 1 1-1v0"/></svg>
